X: 39701
T: Terry 'Cuz' Teahan's
R: polka
M: 2/4
K: Dmajor
|:E|F/G/A FA|d2 d2|FA FA|G/F/E ED|
FA FA|dd/d/ fe|d/d/B AF|1 E2 D:|2 E2 D2||
|:fe e/e/d|Bd A>d|fe e/e/d|fe e/e/A|
d>e fd|Bd A>G|FA E>F|1 ED D2:|2 ED D||

